X: 32
T:Old Collins
M:4/4
L:1/8
Q:1/4=120
C:Vaughan Hully 1993
P:A(AB)4
K:G
P:A
|:G2BB d2d2|c2e2 dcBA|G2BB d2B2|A2A2 G4 :|
P:B
|:A2G2 EFG2|A2B2 G3G |BABc d2g2|f2e2 dcBA|
  G2BB d2d2|c2e2 dcBA|G2BB d2B2|A2A2 G4 :||

